src/assets/outline/HuobiToken.svg

<svg width="24" height="24" viewBox="0 0 24 24"  xmlns="http://www.w3.org/2000/svg">
<path d="M14.7602 22.7191C14.5902 22.7191 14.4302 22.6791 14.3002 22.5991C13.8502 22.3091 11.6102 20.7591 11.2002 18.3991C10.9802 17.0891 11.3502 15.7891 12.3102 14.5491C15.1002 10.9391 15.4102 9.88907 15.4202 9.84907C15.4602 9.56907 15.6502 9.36907 15.9202 9.27907C16.1902 9.18907 16.4702 9.27907 16.6802 9.47907C18.9602 11.6891 20.0002 13.9691 19.7602 16.2591C19.3802 19.8491 15.9002 22.1991 15.2102 22.6291C15.0902 22.6791 14.9202 22.7191 14.7602 22.7191ZM16.3802 11.3091C15.9202 12.1191 15.0802 13.4191 13.5002 15.4491C12.7902 16.3591 12.5302 17.2391 12.6802 18.1291C12.9202 19.5191 14.1402 20.6091 14.7702 21.0791C15.7602 20.3891 18.0002 18.5691 18.2602 16.0591C18.4302 14.5191 17.8002 12.9291 16.3802 11.3091Z" />
<path d="M10.2801 22.7294C10.0201 22.7294 9.76008 22.6594 9.57008 22.6094C7.36008 21.9794 5.36009 19.9594 4.58009 17.5894C3.78009 15.1594 4.27004 12.6194 5.97004 10.4294C9.07004 6.36939 10.1001 3.09939 10.3401 2.19939C10.4501 1.76939 10.7701 1.43939 11.2101 1.30939C11.6601 1.18939 12.1501 1.31939 12.4901 1.65939C12.5201 1.67939 12.5401 1.70939 12.5601 1.73939C13.5001 2.99939 14.5101 5.24939 14.5101 7.78939C14.5101 9.52939 13.2901 11.1094 12.1101 12.6294C10.8601 14.2494 9.5701 15.9194 9.7101 17.7294C9.8401 19.0694 10.4201 20.0894 10.8101 20.7694C11.1401 21.3394 11.4501 21.8794 11.0601 22.3894C10.8501 22.6494 10.5701 22.7294 10.2801 22.7294ZM9.75007 21.9694H9.76008H9.75007ZM11.6501 3.05939C11.1901 4.56939 9.99005 7.62939 7.16005 11.3494C5.39005 13.6394 5.56008 15.7594 6.01008 17.1294C6.54008 18.7394 7.74009 20.1394 9.14009 20.8394C8.76009 20.0994 8.34004 19.0994 8.22004 17.8594C8.04004 15.4594 9.57007 13.4694 10.9301 11.7094C12.0001 10.3194 13.0101 9.00939 13.0101 7.77939C13.0101 5.87939 12.3301 4.13939 11.6501 3.05939ZM11.7901 2.56939C11.7901 2.56939 11.7901 2.57939 11.7901 2.56939C11.7901 2.57939 11.7901 2.56939 11.7901 2.56939Z" />
</svg>

<?xml version="1.0" encoding="UTF-8"?>
<svg width="24" height="24" viewBox="0 0 24 24" xmlns="http://www.w3.org/2000/svg">
 <path d="m14.76 22.719c-0.17 0-0.33-0.04-0.46-0.12-0.45-0.29-2.69-1.84-3.1-4.2-0.22-1.31 0.15-2.61 1.11-3.85 2.79-3.61 3.1-4.66 3.11-4.7 0.04-0.28 0.23-0.48 0.5-0.57s0.55 0 0.76 0.2c2.28 2.21 3.32 4.49 3.08 6.78-0.38 3.59-3.86 5.94-4.55 6.37-0.12 0.05-0.29 0.09-0.45 0.09zm1.62-11.41c-0.46 0.81-1.3 2.11-2.88 4.14-0.71 0.91-0.97 1.79-0.82 2.68 0.24 1.39 1.46 2.48 2.09 2.95 0.99-0.69 3.23-2.51 3.49-5.02 0.17-1.54-0.46-3.13-1.88-4.75z"/>
 <path d="m10.28 22.729c-0.26 0-0.52002-0.07-0.71002-0.12-2.21-0.63-4.21-2.65-4.99-5.02-0.8-2.43-0.31005-4.97 1.39-7.16 3.1-4.06 4.1301-7.33 4.3701-8.23 0.11-0.43 0.43-0.76 0.87-0.89 0.45-0.12 0.94 0.01 1.28 0.35 0.03 0.02 0.05 0.05 0.07 0.08 0.94 1.26 1.95 3.51 1.95 6.05 0 1.74-1.22 3.32-2.4 4.84-1.25 1.62-2.54 3.29-2.4 5.1 0.13 1.34 0.71 2.36 1.1 3.04 0.33 0.57 0.64 1.11 0.25 1.62-0.21 0.26-0.49 0.34-0.78 0.34zm-0.53003-0.76h0.01001-0.01001zm1.9-18.91c-0.46 1.51-1.66 4.57-4.49 8.29-1.77 2.29-1.6 4.41-1.15 5.78 0.53 1.61 1.73 3.01 3.13 3.71-0.38-0.74-0.80005-1.74-0.92005-2.98-0.18-2.4 1.35-4.39 2.7101-6.15 1.07-1.39 2.08-2.7 2.08-3.93 0-1.9-0.68-3.64-1.36-4.72zm0.14-0.49v0 0z"/>
</svg>
